X: 39757
T: Thames, The
R: hornpipe
M: 4/4
K: Dmajor
BgdB AecA|GdBG FcAF|GDEF GABc|^cd^de fe=d=c|
BgdB AecA|GdBG FcAF|GgdB AGFA|G2 B2 G2:|
Adcd edcd|Be^de fede|gfed cBA^G|A^GA^A cBA=G|
Fdcd edcd|Be^de fede|gecA ^GABc|d2 f2 d2:|

